assets/fc/fc-cloth.svg

<svg xmlns="http://www.w3.org/2000/svg" width="100%" height="100%" viewBox="0 0 48 48"><path fill="#FF5722" d="M6 10v28c0 2.2 1.8 4 4 4h28c2.2 0 4-1.8 4-4V10c0-2.2-1.8-4-4-4H10c-2.2 0-4 1.8-4 4z"/><g fill="#BF360C"><path d="M6 35h36v2H6zM6 31h36v2H6zM6.1 39c.2.8.6 1.5 1.2 2h33.2c.6-.5 1-1.2 1.2-2H6.1zM6.1 9h35.7c-.2-.8-.6-1.5-1.2-2H7.4c-.6.5-1.1 1.2-1.3 2zM6 23h36v2H6zM6 27h36v2H6zM6 15h36v2H6zM6 11h36v2H6zM6 19h36v2H6z"/></g><g fill="#FF8A65"><path d="M27 6h2v5h-2zM27 13h2v6h-2zM27 29h2v6h-2zM31 6h2v1h-2zM19 29h2v6h-2zM31 9h2v6h-2zM23 6h2v1h-2zM23 25h2v6h-2zM23 9h2v6h-2zM19 21h2v6h-2zM23 17h2v6h-2zM23 33h2v6h-2zM27 21h2v6h-2zM39 33h2v6h-2zM39 17h2v6h-2zM39 25h2v6h-2zM39 6.1V7h1.6c-.4-.4-1-.7-1.6-.9zM31 17h2v6h-2zM40.6 41H39v.9c.6-.2 1.2-.5 1.6-.9zM35 13h2v6h-2zM31 33h2v6h-2zM35 29h2v6h-2zM39 9h2v6h-2zM35 21h2v6h-2zM31 25h2v6h-2zM35 37h2v5h-2zM35 6h2v5h-2zM31 41h2v1h-2zM23 41h2v1h-2zM27 37h2v5h-2zM19 37h2v5h-2zM7 17h2v6H7zM9 41H7.4c.5.4 1 .7 1.6.9V41zM7.4 7H9v-.9c-.6.2-1.2.5-1.6.9zM7 33h2v6H7zM7 25h2v6H7zM7 9h2v6H7zM11 29h2v6h-2zM15 17h2v6h-2zM15 33h2v6h-2zM15 9h2v6h-2zM15 6h2v1h-2zM19 6h2v5h-2zM15 25h2v6h-2zM15 41h2v1h-2zM11 21h2v6h-2zM11 6h2v5h-2zM11 37h2v5h-2zM19 13h2v6h-2zM11 13h2v6h-2z"/></g></svg>

<svg xmlns="http://www.w3.org/2000/svg" width="100%" height="100%" viewBox="0 0 48 48"><path fill="#FF5722" d="M6,10v28c0,2.2,1.8,4,4,4h28c2.2,0,4-1.8,4-4V10c0-2.2-1.8-4-4-4H10C7.8,6,6,7.8,6,10z"/><g fill="#BF360C"><path d="M6 35H42V37H6zM6 31H42V33H6zM6.1 39c.2.8.6 1.5 1.2 2h33.2c.6-.5 1-1.2 1.2-2H6.1zM6.1 9h35.7c-.2-.8-.6-1.5-1.2-2H7.4C6.8 7.5 6.3 8.2 6.1 9zM6 23H42V25H6zM6 27H42V29H6zM6 15H42V17H6zM6 11H42V13H6zM6 19H42V21H6z"/></g><g fill="#FF8A65"><path d="M27 6H29V11H27zM27 13H29V19H27zM27 29H29V35H27zM31 6H33V7H31zM19 29H21V35H19zM31 9H33V15H31zM23 6H25V7H23zM23 25H25V31H23zM23 9H25V15H23zM19 21H21V27H19zM23 17H25V23H23zM23 33H25V39H23zM27 21H29V27H27zM39 33H41V39H39zM39 17H41V23H39zM39 25H41V31H39zM39 6.1V7h1.6C40.2 6.6 39.6 6.3 39 6.1zM31 17H33V23H31zM40.6 41H39v.9C39.6 41.7 40.2 41.4 40.6 41zM35 13H37V19H35zM31 33H33V39H31zM35 29H37V35H35zM39 9H41V15H39zM35 21H37V27H35zM31 25H33V31H31zM35 37H37V42H35zM35 6H37V11H35zM31 41H33V42H31zM23 41H25V42H23zM27 37H29V42H27zM19 37H21V42H19zM7 17H9V23H7zM9 41H7.4c.5.4 1 .7 1.6.9V41zM7.4 7H9V6.1C8.4 6.3 7.8 6.6 7.4 7zM7 33H9V39H7zM7 25H9V31H7zM7 9H9V15H7zM11 29H13V35H11zM15 17H17V23H15zM15 33H17V39H15zM15 9H17V15H15zM15 6H17V7H15zM19 6H21V11H19zM15 25H17V31H15zM15 41H17V42H15zM11 21H13V27H11zM11 6H13V11H11zM11 37H13V42H11zM19 13H21V19H19zM11 13H13V19H11z"/></g></svg>
